X:2337
T:Butcher's Row
M:4/4
L:1/8
K:G
BcdB G2gf|edef gedc|BcdB G2Bd|cBAG F2D2|
BcdB G2gf|edef gdef|gfge dedc|BGAF G2d2:|
|:gfga b2b2|abag f2d2|edef gdBd|cBAG F2D2|
GFGB AGAc|BGBd edef|gfge dedc|BGAF G4:|


